X: 141
T:Red Crow
M:4/4
L:1/8
F:http://blackrosetheband.googlepages.com/ABCTUNES.ABC May 2009
K:ADor
"Am"A,2A,A, "G"B,G,G,B,|"Am"A,2EG "D"FDEG|"Em"AGED EA,A,D|"G"ECDC B,G,G,B,|
"Am"A,2A,A, "G"B,G,G,B,|"Am"A,2EG "D"FDEG|"Em"AGED EA,CE|1"G"DB,G,B, "Am"(3A,A,A, ^G,B,:|2"G"DB,G,B, "Am"A,4|
|A2eA ceAc|eAce dcBA|"G"G2dc BdGB|dGBd edcB| "Am"A2eA ceAc|eAcb "D"ageg|"Em"age^c d=fed|"G"cAB^G A2(3EFG|
"Am"A2eA ceAc|eAce dcBA|"G"G2dc BdGB|dGBd edcB| "Am"(3AAA aA gAfA|"D"(3AAA cA BAGB|"G"cBAG AGED|"Em"ECDB, CA,B,G,||

